!!!!SEGMENT: pl-sa--269-a-vii-29--001_myslivecek-josef--trio-larghetto.krn
!!!cenid: 17xx:632
!!!COM: Mysliveček, Josef
!!!COM-rismid: pe30002301
!!!CDT: 1737/03/09-1781/02/04
!!!CNT: Czech
!!!OPR: Trio
!!!OTL: Larghetto
!!!OMV: 001
!!!PDT:
!!!AGN: Secular
!!!SMS-siglum: PL-SA
!!!SMS-shelfmark: 269/A VII 29
!!!SMS-shelfwork: 001-001 M
!!!SMS-variant:
!!!SMS-altvar:
!!!NIFC-rismid: 1001077276
!!!URL-scan: http://bc.bdsandomierz.pl/dlibra/publication/1752/edition/1720/content
!!!ONB-nifc: UWAGA: części Tria: Larghetto, Allegro (C), Allegro (3/8). Uwaga na nazwy cz. 002 i 003.
**kern	**dynam	**kern	**kern
*part3	*part3	*part2	*part1
*group	*group	*group1	*group1
*staff3	*	*staff2	*staff1
*Icello	*	*Iflt	*Iflt
*I"Violonczello.	*	*I"Flauto Secundo.	*I"Flauto Primo.
*I'Violonczello.	*	*I'Flauto Secundo.	*I'Flauto Primo.
*clefF4	*	*clefG2	*clefG2
*k[f#]	*	*k[f#]	*k[f#]
*G:	*	*G:	*G:
*M3/8	*	*M3/8	*M3/8
=1	=1	=1	=1
!LO:SIC:o=Violonczello.	!	!LO:TX:a:t=P:problem:w źródle na zbiorczej karcie tytułowej i na stronie tytułowej tej partii widnieje "Flauto Secundo", a w nagłówku tej partii - "Violino Secundo."	!
!	!	!LO:TX:a:t=P:problem:w źródle "Larghetto" jest zapisane na pięciolinii, przed pierwszym taktem	!
!LO:TX:i:a:t=Larghetto.	!	!LO:TX:a:i:t=Larghetto	!LO:TX:a:i:t=Larghetto.
(>8G\L	.	(>8b\L	[>4.dd\
8F#\	.	8a\	.
8A\J)	.	8cc\J)	.
=2	=2	=2	=2
4G\	.	8b\	16dd\LL]
.	.	.	(>16bb\
.	.	8r	16aa\
.	.	.	16gg\
8r	.	8r	16ff#\
.	.	.	16ee\JJ)
=3	=3	=3	=3
8r	.	8r	16dd\LL
.	.	.	16cc\JJ
8E\L	.	(<8g/L	4cc\
8F#\J	.	8a/J)	.
=4	=4	=4	=4
4.G\	.	8g/L	(>8b\L
.	.	8a/	8cc\
.	.	8b/J	8dd\J)
=5	=5	=5	=5
!LO:TX:a:t=P:problem:mixed beam	!	!	!
8C/L	.	4.cc\	8.ee\L
8c\	.	.	.
.	.	.	16gg\Jk
8A\J	.	.	16ff#\LL
.	.	.	16aa\JJ
=6	=6	=6	=6
4.B\	.	4.dd\	(>32gg\LLL
.	.	.	32ff#\
.	.	.	32bb\
.	.	.	32aa\JJJ)
.	.	.	(>32gg\LLL
.	.	.	32ff#\
.	.	.	32ee\
.	.	.	32dd\JJJ)
.	.	.	(>32cc\LLL
.	.	.	32b\
.	.	.	32a\
.	.	.	32g\JJJ)
=7	=7	=7	=7
.	.	8qdd/	8qff#/
!LO:TX:a:t=P:problem:mixed beam	!	!	!
8c\L	.	16cc\LL	16ee\LL
.	.	32b\L	32dd\L
.	.	32a\JJJ	32cc\JJJ
8d\	.	8g/L	8b/L
8D/J	.	8f#/J	8a/J
!	!	!LO:LB:g=original	!
=8	=8	=8	=8
16G\LL	.	4g/	4g/
16G\	.	.	.
16G\	.	.	.
16G\	.	.	.
16G\	.	16r	16r
16G\JJ	.	16b\	16dd\
=9	=9	=9	=9
*tremolo	*	*	*
16G\LL	.	8.cc\L	8.ee\L
16G\	.	.	.
16G\	.	.	.
16G\	.	16ee\L	16ccc\L
.	.	8qdd/	8qbb/
16G\	.	16cc\	16aa\
.	.	8qb/	8qgg/
16G\JJ	.	16a\JJ	16ff#\JJ
=10	=10	=10	=10
16G\LL	.	8b\L	8gg\L
16G\	.	.	.
16G\	.	16bb\L	16ddd\L
16G\	.	(>16gg\	(>16bb\
16G\	.	16dd\	16gg\
16G\JJ	.	16b\JJ)	16dd\JJ)
!	!	!	!LO:LB:g=original
=11	=11	=11	=11
16G\LL	.	8.cc\L	8.ee\L
16G\	.	.	.
16G\	.	.	.
16G\	.	16ee\L	16ccc\L
.	.	8qdd/	8qbb/
16G\	.	16cc\	16aa\
.	.	8qb/	8qgg/
16G\JJ	.	16a\JJ	16ff#\JJ
*Xtremolo	*	*	*
=12	=12	=12	=12
4.G\	.	8b\	(>32gg\LLL
.	.	.	32ff#\
.	.	.	32gg\
.	.	.	32aa\JJJ)
.	.	(>32gg\LLL	(>32bb\LLL
.	.	32ff#\	32aa\
.	.	32gg\	32bb\
.	.	32aa\JJJ)	32ccc\JJJ)
.	.	16.bb\LL	16.ddd\LL
.	.	32gg\JJk	32bb\JJk
=13	=13	=13	=13
8.D\L	.	8gg\L	8bb\L
.	.	8ff#\J	8aa\J
16d\L	.	.	.
16A\	.	8r	8r
16F#\JJ	.	.	.
!LO:LB:g=original	!	!	!
=14	=14	=14	=14
8D\	.	16r	16r
.	.	16ff#'\LL	16aa'\LL
8r	.	16ff#'\	16aa'\
.	.	16ff#'\JJ	16aa'\JJ
8r	.	(>16gg\LL	(>16bb\LL
.	.	16ff#\JJ)	16aa\JJ)
=15	=15	=15	=15
8r	.	(>16ff#\LL	(>16aa\LL
.	.	16dd#X\JJ)	16ff#\JJ)
16r	.	8ee\	8gg\
32E\LLL	.	.	.
32D\JJJ	.	.	.
16C#X\LL	.	8r	8r
16E\JJ	.	.	.
=16	=16	=16	=16
8AA/	.	16r	16r
.	.	16ee'\LL	16gg'\LL
8r	.	16ee'\	16gg'\
.	.	16ee'\JJ	16gg'\JJ
8r	.	(>16ff#\LL	(>16aa\LL
.	.	16ee\JJ)	16gg\JJ)
!	!	!LO:LB:g=original	!
=17	=17	=17	=17
8r	.	(>16ee\LL	(>16gg\LL
.	.	16cc#X\JJ)	16ee\JJ)
16r	.	8dd\	8ff#\
32D/LLL	.	.	.
32C/JJJ	.	.	.
16D\LL	.	16r	16r
16F#\JJ	.	16dd\	16dd\
=18	=18	=18	=18
4G\	.	4.dd\	8.ee\L
.	.	.	16gg\K
8A\	.	.	8ff#\J
!	!	!	!LO:LB:g=original
=19	=19	=19	=19
4B\	.	4dd\	8.gg\L
.	.	.	(>16bb\L
8F#\	.	16dd\LL	16aa\
.	.	16aa\JJ	16ddd\JJ)
=20	=20	=20	=20
.	.	8qaa/	8qqccc/
!LO:TX:a:t=P:problem:mixed beam	!	!	!
8G\L	.	16gg\LL	16bb\LL
.	.	32ff#\L	32aa\L
.	.	32ee\JJJ	32gg\JJJ
8A\	.	8dd\L	8ff#\L
!	!	!LO:SIC:s=8cc#	!
8AA/J	.	8cc\J	8ee\J
=21	=21	=21	=21
(<16D/LL	.	8dd\	8dd\
16AA/)	.	.	.
(<16D/	.	8r	8r
16AA/)	.	.	.
.	.	8qff#/	8qaa/
(<16C#X/	.	16ee\LL	16gg\LL
16AA/JJ)	.	32dd\L	32ff#\L
.	.	32cc#X\JJJ	32ee\JJJ
=22	=22	=22	=22
(<16D/LL	.	8dd\	8ff#\
16AA/)	.	.	.
(<16D/	.	8r	8r
16AA/)	.	.	.
.	.	8qa/	8qff#/
(<16C#X/	.	16g/LL	16ee\LL
16AA/JJ)	.	32f#/L	32dd\L
.	.	32e/JJJ	32cc#X\JJJ
=23	=23	=23	=23
!LO:TX:a:t=P:problem:w źródle tt. 23-24 zapisane jako repetycja tt. 21-22	!	!	!
(<16D/LL	.	8f#/	8dd\
16AA/)	.	.	.
(<16D/	.	8r	8r
16AA/)	.	.	.
.	.	8qff#/	8qaa/
(<16C#X/	.	16ee\LL	16gg\LL
16AA/JJ)	.	32dd\L	32ff#\L
.	.	32cc#X\JJJ	32ee\JJJ
=24	=24	=24	=24
(<16D/LL	.	8dd\	8ff#\
16AA/)	.	.	.
(<16D/	.	8r	8r
16AA/)	.	.	.
.	.	8qa/	8qff#/
(<16C#X/	.	16g/LL	16ee\LL
16AA/JJ)	.	32f#/L	32dd\L
.	.	32e/JJJ	32cc#X\JJJ
!LO:LB:g=original	!	!	!
=25	=25	=25	=25
!	!	!	!LO:SIC:s=8cc#
.	.	8qqe/	8qqcc/
!LO:TX:a:t=P:problem:mixed beam	!	!	!
8D\L	.	4f#/	4dd\
8DD/J	.	.	.
8r	.	8r	8r
!	!	!LO:LB:g=original	!
==26	==26	==26	==26
16r	.	[>4.dd\	4.r
16D\LL	.	.	.
!	!	!	!LO:TX:a:t=1.
(>16Fn\	.	.	.
16E\	.	.	.
16D\	.	.	.
16C\JJ)	.	.	.
!	!	!	!LO:LB:g=original
=27	=27	=27	=27
!LO:TX:a:t=P:problem:mixed beam	!	!	!
16BB/LL	.	4.dd\]	16r
(>16B\	.	.	16dd\LL
16d\	.	.	(>16ffn\
16c\	.	.	16ee\
16B\	.	.	16dd\
16A\JJ)	.	.	16cc\JJ)
=28	=28	=28	=28
8G#X\L	.	8dd\	(>16b\KL
.	.	.	8bb\
8G#\	.	8r	.
.	.	.	8gg#X\
8G#\J	.	8r	.
.	.	.	16dd\Jk)
=29	=29	=29	=29
8A\L	.	4.r	16cc\LL
.	.	.	32ee\L
!	!	!LO:TX:a:t=1.	!
.	.	.	32ffn\JJJ
8c\	.	.	16ee'\LL
.	.	.	16ee'\
8A\J	.	.	16ee'\
.	.	.	16ee'\JJ
=30	=30	=30	=30
8G#X\L	.	16r	8ee\
.	.	(>32b\LLL	.
.	.	32cc\JJJ)	.
8E\	.	16dd'\LL	8r
.	.	16dd'\	.
8G#\J	.	16dd'\	8r
.	.	16dd'\JJ	.
=31	=31	=31	=31
4A\	.	8cc\	16r
.	.	.	(>32ee\LLL
!	!	!	!LO:SIC:s=32ffn
.	.	.	32ff#\JJJ)
.	.	8r	16ee'\LL
.	.	.	16ee'\JJ
8Gn\	.	8r	8ee-X\
=32	=32	=32	=32
8F#X\L	.	16r	8dd\
.	.	(>32a\LLL	.
.	.	32b\JJJ)	.
8D\	.	16cc'\LL	8r
.	.	16cc'\	.
8F#\J	.	16cc'\	8r
.	.	16cc'\JJ	.
=33	=33	=33	=33
8G\L	.	8b\	16r
.	.	.	(>32dd\LLL
.	.	.	32ee\JJJ)
8B\	.	4r	16dd'\LL
.	.	.	16dd'\
8G\J	.	.	16dd'\
.	.	.	16dd'\JJ
=34	=34	=34	=34
8F#X\L	.	16r	8dd\
.	.	(>32a\LLL	.
.	.	32b\JJJ)	.
8D\	.	16cc'\LL	8r
.	.	16cc'\	.
8F#\J	.	16cc'\	8r
.	.	16cc'\JJ	.
=35	=35	=35	=35
8G\L	.	8b\	16r
.	.	.	8gg\L
8B\	.	8r	.
.	.	.	8gg\
8G\J	.	8r	.
.	.	.	16gg\Jk
!LO:LB:g=original	!	!	!LO:LB:g=original
=36	=36	=36	=36
8B\L	.	16r	16gg#X\KL
.	.	8ffn\L	8gg#\
8d\	.	.	.
.	.	8ff\	8gg#\
8B\J	.	.	.
.	.	16ff\Jk	16gg#\Jk
!	!	!LO:LB:g=original	!
=37	=37	=37	=37
4c\	.	16ee\KL	8.aa'\L
.	.	8ee\	.
.	.	8ee\	(>16ccc\L
8d\	.	.	16bb\
.	.	16ee\Jk	16gg#X\JJ)
=38	=38	=38	=38
4c\	.	16ee\KL	8.aa\L|
.	.	8ee\	.
.	.	8ee\	(16ccc\L
8d\	.	.	16bb\
.	.	16ee\Jk	16gg#X\JJ)
=39	=39	=39	=39
!	!	!LO:TX:a:t=P:problem:mixed beam	!
4c\	.	16ee\KL	8.aa'\L
.	.	8ee\	.
.	.	8ee\	(>16bb\L
8c#X\	.	.	16aa\
.	.	16a/Jk	16ggn\JJ)
=40	=40	=40	=40
.	.	.	8qqgg/
8d\	.	4a/	4ff#\
(>16D\LL	.	.	.
16E\)	.	.	.
(>16E\	.	8r	8r
16F#\JJ)	.	.	.
=41	=41	=41	=41
8G\	.	16r	16r
.	.	16b'\LL	16dd'\LL
8r	.	16b'\	16dd'\
.	.	16b'\JJ	16dd'\JJ
8r	.	(>16cc\LL	(>16ee\LL
.	.	16b\JJ)	16dd\JJ)
=42	=42	=42	=42
8r	.	(<16b/LL	(>16dd\LL
.	.	16g#X/JJ)	16b\JJ)
16r	.	8a/	8cc\
(>32A\LLL	.	.	.
32G\JJJ)	.	.	.
(>16F#\LL	.	8r	8r
16A\JJ)	.	.	.
=43	=43	=43	=43
8D/	.	16r	16r
.	.	16a'/LL	16cc'\LL
8r	.	16a'/	16cc'\
.	.	16a'/JJ	16cc'\JJ
8r	.	(<16b/LL	(>16dd\LL
.	.	16a/JJ)	16cc\JJ)
=44	=44	=44	=44
8r	.	(<16a/LL	(>16cc\LL
.	.	16f#/JJ)	16a\JJ)
16r	.	8g/	8b\|
(>32G\LLL	.	.	.
32F#\JJJ)	.	.	.
!LO:TX:a:t=P:problem:mixed beam	!	!	!
16G\LL	.	16r	16r
16BB/JJ	.	16g/	16gg\
!	!	!	!LO:LB:g=original
=45	=45	=45	=45
4C/	.	8.a/L	[>4.gg\
.	.	16cc/K	.
8D/	.	8b/J	.
=46	=46	=46	=46
4E/	.	8.cc\L	4.gg\]
.	.	16ee\K	.
8BB/	.	8dd\J	.
!LO:LB:g=original	!	!LO:LB:g=original	!
=47	=47	=47	=47
.	.	8qdd/	8qff#/
8C/L	.	16cc\LL	16ee\LL
.	.	32b\L	32dd\L
.	.	32a\JJJ	32cc\JJJ
8D/	.	8g/L	8b/L
8D/J	.	8f#/J	8a/J
=48	=48	=48	=48
!	!LO:DY:a:t=for&colon;	!	!
(>16G\LL	f	8g/	8g/
16D\)	.	.	.
(>16G\	.	8r	8r
16D\)	.	.	.
.	.	8qbb/	8qddd/
(>16F#\	.	16aa\LL	16ccc\LL
16D\JJ)	.	32gg\L	32bb\L
.	.	32ff#\JJJ	32aa\JJJ
=49	=49	=49	=49
(>16G\LL	.	8gg\	8bb\
16D\)	.	.	.
(>16G\	.	8r	8r
16D\)	.	.	.
.	.	8qdd/	8qbb/
(>16F#\	.	16cc\LL	16aa\LL
16D\JJ)	.	32b\L	32gg\L
.	.	32a\JJJ	32ff#\JJJ
=50	=50	=50	=50
(>16G\LL	.	8b\	8gg\
16D\)	.	.	.
(>16G\	.	8r	8r
16D\)	.	.	.
.	.	8qbb/	8qddd/
(>16F#\	.	16aa\LL	16ccc\LL
16D\JJ)	.	32gg\L	32bb\L
.	.	32ff#\JJJ	32aa\JJJ
=51	=51	=51	=51
(>16G\LL	.	8gg\	8bb\
16D\)	.	.	.
(>16G\	.	8r	8r
16D\)	.	.	.
.	.	8qdd/	8qbb/
(>16F#\	.	16cc\LL	16aa\LL
16D\JJ)	.	32b\L	32gg\L
.	.	32a\JJJ	32ff#\JJJ
=52	=52	=52	=52
.	.	8qqa/	8qqff#/
!LO:TX:a:t=P:problem:mixed beam	!	!	!
8G\L	.	4b\	4gg\
8GG/J	.	.	.
8r	.	8r	8r
!LO:TX:a:t=P:problem:błąd renderowania - fermaty powinny wyświetlać się nad i pod końcową kreską taktową	!	!	!
==;;	==	==;;	==;;
*-	*-	*-	*-
!!!system-decoration: [g1]s3
!!!RDF**kern: > = above
!!!RDF**kern: < = below
!!!EED: Antoni Szymański
!!!EST: 2020-10-29
!!!ENC: Anastazja Marusiak
!!!END: 2020-06-04
!!!RDF**kern: | = vertical stroke
